!!!ONB: MCCC : IFC0058_02 : Extracted Monophonic Melody
!!!COM: Chopin, Frédéric
!!!OPR: Mazurkas, Op.67
!!!OMV: 2
!!!SCT: Op.67 (Posthumous)
!!!ODT: 1830///
**kern
*thru
*staff1
*Ipiano
*clefG2
*k[b-e-a-d-]
*f:
*M3/4
*MM120
[2dd-
=2
8dd-]
8cc
8b-
8a-
8g
8f
=3
8g
8c
4.cc
8g
=4
8.a-
16cc
[2ff
=5
4ff]
[2ff
=6
8ff]
8ee-
8dd-
8cc
8b-
8a-
=7
8a--
8g-
8b-
8f
8a-
8g-
=8
8f
8e
2c
=9
4dd-
[2dd-
=10
8dd-]
8cc
8b-
8a-
8g
8f
=11
8g
8c
4.cc
8g
=12
8a
8cc
4.ff
8ee
=13
8ee-
8dd
8dd-
8a
8b-
8b
=14
8dd-
8dd-
8cc
8g
8a-
8b
=15
8dd-
8cc
8b
8f#
8g
8b-
=16
8a
8a-
2f
=17
2e-
4f
=18
8e-
8d
4e-
4cc
=19
2b-
4cc
=20
8.a-
16g
4a-
4ee-
=21
2e-
4f
=22
8e-
8d
4e-
4a-
=23
2g
4d
=24
2g
4d
=25
2e-
[4f
=26
8f]
8d
4e-
4cc
=27
2b-
4cc
=28
8.a-
16g
8a-
16r
16ff
4ee-
=29
2e-
4f
=30
8e-
16r
16d
4e-
4a-
=31
2g
4d
=32
2g
4d
=33
2a
4dd
=34
8.dd
16dd
4dd
4gg
=35
2g
4cc
=36
8.cc
16cc
4cc
4ff
=37
8f
8e-
4d-
8A-
8B-
=38
2c
4c
=39
8f
8e-
4d-
8A-
8B-
=40
2c
4c
=41
4dd-
[2dd-
=42
8dd-]
8cc
8b-
8a-
8g
8f
=43
8g
8c
4.cc
8g
=44
8.a-
16cc
[2ff
=45
4ff]
4.ff
8ff[
=46
8ff]
8ee-
8dd-
8cc
8b-
8a-
=47
8a--
8g-
8b-
8f
8a-
8g-
=48
8f
8e
2c
=49
4dd-
[2dd-
=50
8dd-]
8cc
8b-
8a-
8g
8f
=51
8g
8c
4.cc
8g
=52
8a
8cc
4.ff
8ee
=53
8ee-
8dd
8dd-
8a
8b-
8b
=54
8dd-
8dd-
8cc
8g
8a-
8b
=55
8dd-
8cc
8b
8f#
8g
8b-
=56
8a
8a-
2f
==
*-
